client/src/assets/calendar_today.svg

<svg width="24" height="24" viewBox="0 0 24 24" fill="none" xmlns="http://www.w3.org/2000/svg">
<mask id="mask0_20_90" style="mask-type:alpha" maskUnits="userSpaceOnUse" x="0" y="0" width="24" height="24">
<rect width="24" height="24" fill="#D9D9D9"/>
</mask>
<g mask="url(#mask0_20_90)">
<path d="M5 22C4.45 22 3.97917 21.8042 3.5875 21.4125C3.19583 21.0208 3 20.55 3 20V6C3 5.45 3.19583 4.97917 3.5875 4.5875C3.97917 4.19583 4.45 4 5 4H6V2H8V4H16V2H18V4H19C19.55 4 20.0208 4.19583 20.4125 4.5875C20.8042 4.97917 21 5.45 21 6V20C21 20.55 20.8042 21.0208 20.4125 21.4125C20.0208 21.8042 19.55 22 19 22H5ZM5 20H19V10H5V20ZM5 8H19V6H5V8Z" fill="#1C1B1F"/>
</g>
</svg>

<?xml version="1.0" encoding="utf-8"?>
<!-- Generator: Adobe Illustrator 23.1.0, SVG Export Plug-In . SVG Version: 6.00 Build 0)  -->
<svg version="1.1" id="Capa_1" xmlns="http://www.w3.org/2000/svg" xmlns:xlink="http://www.w3.org/1999/xlink" x="0px" y="0px"
	 viewBox="0 0 24 24" style="enable-background:new 0 0 24 24;" xml:space="preserve">
<style type="text/css">
	.st0{fill:#D9D9D9;filter:url(#Adobe_OpacityMaskFilter);}
	.st1{mask:url(#mask0_20_90_1_);}
	.st2{fill:#1C1B1F;}
</style>
<defs>
	<filter id="Adobe_OpacityMaskFilter" filterUnits="userSpaceOnUse" x="3" y="2" width="18" height="20">
		<feColorMatrix  type="matrix" values="1 0 0 0 0  0 1 0 0 0  0 0 1 0 0  0 0 0 1 0"/>
	</filter>
</defs>
<mask maskUnits="userSpaceOnUse" x="3" y="2" width="18" height="20" id="mask0_20_90_1_">
	<rect class="st0" width="24" height="24"/>
</mask>
<g class="st1">
	<path class="st2" d="M5,22c-0.6,0-1-0.2-1.4-0.6C3.2,21,3,20.5,3,20V6c0-0.6,0.2-1,0.6-1.4C4,4.2,4.4,4,5,4h1V2h2v2h8V2h2v2h1
		c0.5,0,1,0.2,1.4,0.6C20.8,5,21,5.4,21,6v14c0,0.5-0.2,1-0.6,1.4C20,21.8,19.5,22,19,22H5z M5,20h14V10H5V20z M5,8h14V6H5V8z"/>
</g>
</svg>
